storage/app/icons/phosphoricons/bold/resize-bold.svg

<svg xmlns="http://www.w3.org/2000/svg" fill="currentColor" viewBox="0 0 256 256"><path d="M136 108H48a12 12 0 0 0-12 12v88a12 12 0 0 0 12 12h88a12 12 0 0 0 12-12v-88a12 12 0 0 0-12-12m-12 88H60v-64h64Zm96-8v12a20 20 0 0 1-20 20h-20a12 12 0 0 1 0-24h16v-8a12 12 0 0 1 24 0m0-72v24a12 12 0 0 1-24 0v-24a12 12 0 0 1 24 0m0-60v16a12 12 0 0 1-24 0V60h-12a12 12 0 0 1 0-24h16a20 20 0 0 1 20 20m-68-8a12 12 0 0 1-12 12h-24a12 12 0 0 1 0-24h24a12 12 0 0 1 12 12M36 76V56a20 20 0 0 1 20-20h12a12 12 0 0 1 0 24h-8v16a12 12 0 0 1-24 0"/></svg>

<svg xmlns="http://www.w3.org/2000/svg" viewBox="0 0 256 256" fill="currentColor"><path d="M136,108H48a12,12,0,0,0-12,12v88a12,12,0,0,0,12,12h88a12,12,0,0,0,12-12V120A12,12,0,0,0,136,108Zm-12,88H60V132h64Zm96-8v12a20,20,0,0,1-20,20H180a12,12,0,0,1,0-24h16v-8a12,12,0,0,1,24,0Zm0-72v24a12,12,0,0,1-24,0V116a12,12,0,0,1,24,0Zm0-60V72a12,12,0,0,1-24,0V60H184a12,12,0,0,1,0-24h16A20,20,0,0,1,220,56Zm-68-8a12,12,0,0,1-12,12H116a12,12,0,0,1,0-24h24A12,12,0,0,1,152,48ZM36,76V56A20,20,0,0,1,56,36H68a12,12,0,0,1,0,24H60V76a12,12,0,0,1-24,0Z"/></svg>
